Numix/24x24/status/dropboxstatus-busy2.svg

<?xml version="1.0" encoding="UTF-8" standalone="no"?>
<svg
   xmlns:dc="http://purl.org/dc/elements/1.1/"
   xmlns:cc="http://creativecommons.org/ns#"
   xmlns:rdf="http://www.w3.org/1999/02/22-rdf-syntax-ns#"
   xmlns:svg="http://www.w3.org/2000/svg"
   xmlns="http://www.w3.org/2000/svg"
   xmlns:sodipodi="http://sodipodi.sourceforge.net/DTD/sodipodi-0.dtd"
   xmlns:inkscape="http://www.inkscape.org/namespaces/inkscape"
   width="24"
   height="24"
   viewBox="0 0 24 24"
   id="svg3005"
   version="1.1"
   inkscape:version="0.48.5 r10040"
   sodipodi:docname="dropboxstatus-busy2.svg">
  <metadata
     id="metadata3017">
    <rdf:RDF>
      <cc:Work
         rdf:about="">
        <dc:format>image/svg+xml</dc:format>
        <dc:type
           rdf:resource="http://purl.org/dc/dcmitype/StillImage" />
      </cc:Work>
    </rdf:RDF>
  </metadata>
  <defs
     id="defs3015" />
  <sodipodi:namedview
     pagecolor="#ffffff"
     bordercolor="#666666"
     borderopacity="1"
     objecttolerance="10"
     gridtolerance="10"
     guidetolerance="10"
     inkscape:pageopacity="0"
     inkscape:pageshadow="2"
     inkscape:window-width="1280"
     inkscape:window-height="998"
     id="namedview3013"
     showgrid="false"
     inkscape:zoom="9.8333333"
     inkscape:cx="12.673798"
     inkscape:cy="4.828498"
     inkscape:window-x="0"
     inkscape:window-y="0"
     inkscape:window-maximized="1"
     inkscape:current-layer="svg3005" />
  <path
     style="fill:#ececec;fill-opacity:1"
     inkscape:connector-curvature="0"
     id="path3011"
     d="m 7.089844,3.816406 -4.90625,3.820313 4.90625,3.273437 -4.90625,4.363282 L 12,21.816406 21.816406,15.273438 16.910156,10.910156 21.816406,7.636719 16.910156,3.816406 12,7.636719 z M 12,9.273438 c 1.921875,0 3.679688,1.175781 4.433594,2.964843 l 1.019531,-0.375 -0.851563,3 -2.761718,-1.601562 1.09375,-0.410157 C 14.417969,11.6875 13.261719,10.910156 12,10.910156 c -1.324219,0 -2.507812,0.792969 -3,2.042969 L 7.5,12.375 C 8.234375,10.496094 10.011719,9.273438 12,9.273438 z m -4.636719,4.160156 2.796875,1.667968 -1.09375,0.445313 c 0.523438,1.167969 1.660156,1.90625 2.933594,1.90625 1.320312,0 2.523438,-0.824219 3,-2.078125 l 1.5,0.578125 c -0.710938,1.878906 -2.519531,3.136719 -4.5,3.136719 -1.933594,0 -3.664062,-1.167969 -4.433594,-2.964844 l -1.019531,0.441406 z" />
</svg>

<svg xmlns="http://www.w3.org/2000/svg" width="24" height="24" viewBox="0 0 24 24">
 <g>
  <path d="M 7.089844 4.910156 L 2.183594 8.726562 L 7.089844 12 L 2.183594 16.363281 L 12 22.910156 L 21.816406 16.363281 L 16.910156 12 L 21.816406 8.726562 L 16.910156 4.910156 L 12 8.726562 Z M 12 10.363281 C 13.921875 10.363281 15.679688 11.539062 16.433594 13.328125 L 17.453125 12.953125 L 16.601562 15.953125 L 13.839844 14.351562 L 14.933594 13.941406 C 14.417969 12.78125 13.261719 12 12 12 C 10.675781 12 9.492188 12.792969 9 14.046875 L 7.5 13.464844 C 8.234375 11.589844 10.011719 10.363281 12 10.363281 Z M 7.363281 14.523438 L 10.160156 16.191406 L 9.066406 16.636719 C 9.589844 17.808594 10.726562 18.546875 12 18.546875 C 13.320312 18.546875 14.523438 17.71875 15 16.464844 L 16.5 17.046875 C 15.789062 18.925781 13.980469 20.183594 12 20.183594 C 10.066406 20.183594 8.335938 19.011719 7.566406 17.214844 L 6.546875 17.660156 Z " fill-opacity="0.302"/>
  <path d="M 7.089844 3.816406 L 2.183594 7.636719 L 7.089844 10.910156 L 2.183594 15.273438 L 12 21.816406 L 21.816406 15.273438 L 16.910156 10.910156 L 21.816406 7.636719 L 16.910156 3.816406 L 12 7.636719 Z M 12 9.273438 C 13.921875 9.273438 15.679688 10.449219 16.433594 12.238281 L 17.453125 11.863281 L 16.601562 14.863281 L 13.839844 13.261719 L 14.933594 12.851562 C 14.417969 11.6875 13.261719 10.910156 12 10.910156 C 10.675781 10.910156 9.492188 11.703125 9 12.953125 L 7.5 12.375 C 8.234375 10.496094 10.011719 9.273438 12 9.273438 Z M 7.363281 13.433594 L 10.160156 15.101562 L 9.066406 15.546875 C 9.589844 16.714844 10.726562 17.453125 12 17.453125 C 13.320312 17.453125 14.523438 16.628906 15 15.375 L 16.5 15.953125 C 15.789062 17.832031 13.980469 19.089844 12 19.089844 C 10.066406 19.089844 8.335938 17.921875 7.566406 16.125 L 6.546875 16.566406 Z " fill="#dcdcdc"/>
 </g>
</svg>
